build/img/icon-planet.svg

<svg width="48" height="48" viewBox="0 0 48 48" fill="none" xmlns="http://www.w3.org/2000/svg">
<path d="M48 22.5C47.6327 16.6578 45.1428 11.1512 40.999 7.01656C36.8551 2.88193 31.343 0.404325 25.5 0.05V0H22.5V0.05C16.6658 0.416059 11.1658 2.89884 7.03233 7.03233C2.89884 11.1658 0.416059 16.6658 0.05 22.5H0V25.5H0.05C0.404325 31.343 2.88193 36.8551 7.01656 40.999C11.1512 45.1428 16.6578 47.6327 22.5 48H25.5C31.3511 47.6444 36.8698 45.1597 41.0148 41.0148C45.1597 36.8698 47.6444 31.3511 48 25.5V22.5ZM44 22.5H36.6C36.38 15.82 34.73 9.88 32.22 5.79C35.4901 7.26921 38.3019 9.60115 40.3605 12.5412C42.4191 15.4813 43.6486 18.9212 43.92 22.5H44ZM27.07 43.74C26.55 43.82 26.07 43.88 25.5 43.92V25.5H33.59C33.29 34.37 30.38 41.08 27.07 43.74ZM14.41 25.5H22.5V43.92C21.97 43.92 21.45 43.82 20.93 43.74C17.62 41.08 14.71 34.37 14.41 25.5ZM20.93 4.26C21.45 4.18 21.93 4.12 22.5 4.08V22.5H14.41C14.71 13.63 17.62 6.92 20.93 4.26ZM25.5 22.5V4.08C26.03 4.08 26.55 4.18 27.07 4.26C30.38 6.92 33.29 13.63 33.59 22.5H25.5ZM15.78 5.79C13.27 9.88 11.62 15.79 11.4 22.5H4.08C4.35142 18.9212 5.58089 15.4813 7.63947 12.5412C9.69805 9.60115 12.5099 7.26921 15.78 5.79ZM4.08 25.5H11.4C11.62 32.18 13.27 38.12 15.78 42.21C12.5099 40.7308 9.69805 38.3989 7.63947 35.4588C5.58089 32.5187 4.35142 29.0788 4.08 25.5ZM32.22 42.21C34.73 38.12 36.38 32.21 36.6 25.5H43.92C43.6486 29.0788 42.4191 32.5187 40.3605 35.4588C38.3019 38.3989 35.4901 40.7308 32.22 42.21Z" fill="white"/>
</svg>

<svg width="48" height="48" fill="none" xmlns="http://www.w3.org/2000/svg"><path d="M48 22.5A24 24 0 0025.5.05V0h-3v.05A24 24 0 00.05 22.5H0v3h.05A24 24 0 0022.5 48h3A24 24 0 0048 25.5v-3zm-4 0h-7.4c-.22-6.68-1.87-12.62-4.38-16.71a20 20 0 0111.7 16.71H44zM27.07 43.74c-.52.08-1 .14-1.57.18V25.5h8.09c-.3 8.87-3.21 15.58-6.52 18.24zM14.41 25.5h8.09v18.42c-.53 0-1.05-.1-1.57-.18-3.31-2.66-6.22-9.37-6.52-18.24zm6.52-21.24c.52-.08 1-.14 1.57-.18V22.5h-8.09c.3-8.87 3.21-15.58 6.52-18.24zM25.5 22.5V4.08c.53 0 1.05.1 1.57.18 3.31 2.66 6.22 9.37 6.52 18.24H25.5zM15.78 5.79c-2.51 4.09-4.16 10-4.38 16.71H4.08a20 20 0 0111.7-16.71zM4.08 25.5h7.32c.22 6.68 1.87 12.62 4.38 16.71A20 20 0 014.08 25.5zm28.14 16.71c2.51-4.09 4.16-10 4.38-16.71h7.32a20 20 0 01-11.7 16.71z" fill="#fff"/></svg>
